X: 184
T: No_92_I_Will_Sing.krn
N: Derived from No_92_I_Will_Sing.krn
%%abc-version 2.0
%%abcx-abcm2ps-target-version 5.9.1 (29 Sep 2008)
%%abc-creator hum2abc beta
%%abcx-conversion-date 2019/03/15 08:29:13
%%humdrum-veritas 3497332952
%%humdrum-veritas-data 1856827677
%%linebreak <none>
%%barnumbers 0
L: 1/8
M: 3/4
%%staves {1 2}
V: 1 clef=bass
V: 2 clef=bass
K: Gb
[V:1] D [I:setbarnb 1]| 
[V:2] z | 
[V:1] D2=C2(3DDD ||  
[V:2] G,,G,, G,,G,, G,,G,, ||  
[V:1] [M:2/4]A,3D ||  
[V:2] [M:2/4]z4 ||  
[V:1] [M:3/4]D2C2(3:2:4A,A,(A,/G,/) ||  
[V:2] [M:3/4]z6 ||  
[V:1] [M:2/4](G,//E,3/)D,//D,2 ]|:  
[V:2] [M:2/4]z4 ]|:  
[V:1] D,2(3D,D,D, | 
[V:2] z4 | 
[V:1] D,2A,A, | 
[V:2] z4 | 
[V:1] A,2(3:2:4A,A,(A,/G,/) | 
[V:2] z4 | 
[V:1] (G,/E,3/) E,D, | 
[V:2] z4 | 
[V:1] D,2D,/D,/D, | 
[V:2] z4 | 
[V:1] D,2E,E, | 
[V:2] z4 | 
[V:1] E,2(3:2:4E,E,(E,/D,/) | 
[V:2] z4 | 
[V:1] D,/B,,3/ E,E, | 
[V:2] z4 | 
[V:1] E,2(3:2:4E,E,(E,/D,/) | 
[V:2] z4 | 
[V:1] D,2D,D, | 
[V:2] z4 | 
[V:1] D,2(3D,D,D, ||  
[V:2] z4 ||  
[V:1] [M:3/4]D,2A,A, A,/A,/C/C/ | 
[V:2] [M:3/4]z6 | 
[V:1] [M:2/4]B,2B,/A,/(A,/G,/) | 
[V:2] [M:2/4]z4 | 
[V:1] [M:3/8]G,//E,3//D,D, :|]  
[V:2] [M:3/8]z3 :|]  



